public/assets/productpage/otziv.svg

<svg width="31" height="31" viewBox="0 0 31 31" fill="none" xmlns="http://www.w3.org/2000/svg">
<g id="Group">
<circle id="Ellipse 1929" cx="15.5" cy="15.5" r="15.5" fill="#E5E4ED"/>
<g id="&#208;&#162;&#208;&#148;" opacity="0.8">
<path d="M10.946 19.646V12.02H8V11.006H14.96V12.02H12.014V19.646H10.946Z" fill="#7A7687"/>
<path d="M14.2609 21.086V18.632C14.5769 18.632 14.8329 18.552 15.0289 18.392C15.2289 18.232 15.3849 18.016 15.4969 17.744C15.6089 17.468 15.6929 17.158 15.7489 16.814C15.8089 16.47 15.8569 16.114 15.8929 15.746C15.9449 15.226 15.9869 14.722 16.0189 14.234C16.0549 13.746 16.0869 13.24 16.1149 12.716C16.1429 12.192 16.1749 11.62 16.2109 11L21.6409 11.006V18.632H22.2709V21.086H21.2029V19.646H15.3289V21.086H14.2609ZM16.1329 18.632H20.5729V12.02L17.2009 12.014C17.1769 12.478 17.1529 12.924 17.1289 13.352C17.1089 13.776 17.0829 14.204 17.0509 14.636C17.0189 15.068 16.9789 15.526 16.9309 16.01C16.8869 16.458 16.8369 16.846 16.7809 17.174C16.7289 17.498 16.6529 17.778 16.5529 18.014C16.4529 18.246 16.3129 18.452 16.1329 18.632Z" fill="#7A7687"/>
</g>
</g>
</svg>

<svg width="31" height="31" fill="none" xmlns="http://www.w3.org/2000/svg"><circle cx="15.5" cy="15.5" r="15.5" fill="#E5E4ED"/><g opacity=".8" fill="#7A7687"><path d="M10.946 19.646V12.02H8v-1.014h6.96v1.014h-2.946v7.626h-1.068ZM14.26 21.086v-2.454c.317 0 .573-.08.769-.24.2-.16.356-.376.468-.648.112-.276.196-.586.252-.93.06-.344.108-.7.144-1.068.052-.52.094-1.024.126-1.512.036-.488.068-.994.096-1.518.028-.524.06-1.096.096-1.716l5.43.006v7.626h.63v2.454h-1.068v-1.44h-5.874v1.44H14.26Zm1.873-2.454h4.44V12.02l-3.372-.006-.072 1.338a47.994 47.994 0 0 1-.198 2.658c-.044.448-.094.836-.15 1.164a3.639 3.639 0 0 1-.228.84c-.1.232-.24.438-.42.618Z"/></g></svg>
